X: 332
T: Hunting the Hare
%R: jig
Z: 2014 John Chambers <jc:trillian.mit.edu>
B: Preston "Twenty four Country Dances for the Year 1798" p.146 #2
F: http://www.vwml.org/browse/browse-collections-dance-tune-books/browse-prestons1798# 2014-8-10
M: 6/8
L: 1/8
K: D
|:\
ddD FED | fed ecA |\
ddD FED | Bdc d3 :|\
|:\
fda fda | eca eca |\
fda eca | Adc d3 :|
% - - - - - - - - - - - - - - - - - - - - - - - - -
%%begintext align
%% Sett and change sides .| Sett and change
%% back again :| Lead down 2 Cu :|. up again and
%% cast off :|:
%%endtext
% - - - - - - - - - - - - - - - - - - - - - - - - -

%%sep 1 1 500
%%sep 1 1 500
